X:143
T:Steel Hoop. JJo8.143, The
%%VWML:JohnsonVol8-2184-p72-0
F:http://www.vwml.org/record/JohnsonVol8/2184/p72
Z:Transcribed by Simon Furey and Lewis Jones
Z:vmp.Simon Wilson 2013 www.village-music-project.org.uk
Z:Dance added by John Chambers 2017
M:2/4
L:1/8
%Q:1/2=80
K:G
|:\
GG2D | BB2G | dd2B | g2d2 | ec2e | dB2d | cA2c | BG AD |
GG2D | BB2G | dd2B | g2d2 | ec2e | dB2c | BA GF | G2[G2G,2] :|
|:\
gg2d | gg2d | gb2g | gb2g | gg2d | gg2d | edcB | B2A2 |
gg2d | gg2d | gb2g | gb2g | gd ed | gd ec | BA GF | G2[G2G,2] :|
W: The 1st Cu. whole figure down and up .|
W:1st Man foot it to the 2d Wo. and turn. 1st
W:Wo. do the same to the 2d Man ..| Gallop
W:down and up and cast off Lead thro' the 3d
W:Cu. and cast up .| hands 4 across at Bottom
W:right hand and left at top ..|
W:
T:New Year's Day in the Morning. JJo8.144
B:J.Johnson Choice Collection Vol 8 1758
Z:vmp.Simon Wilson 2013 www.village-music-project.org.uk
Z:Dance added by John Chambers 2017
M:6/8
L:1/8
%Q:3/8=110
K:A
|:\
A2cd2f | eca cBA | fdf ecA | GBA GFE |\
A2cd2f | eca cBA | gba gfe | Bc^de3 :|
|:\
Ae=d cBA | =GEG FED | dfe dcB | AFA GFE |\
gba gfe | dBd cBA | fdf ecA | EFGA3 :|
W: The 1st Cu. cast off one Cu. the Man
W:hands three round with the 3d Cu.
W:and the Wo. with the 2d Cu. .| the
W:Man heys with the 3d Cu. and the Wo.
W:heys with the 2d Cu. ..| hands 6 round .|
W:and right hands and left ..|
W:
